icons/xray.svg

<svg width="48" height="48" viewBox="0 0 48 48" fill="none" xmlns="http://www.w3.org/2000/svg">
<path fill-rule="evenodd" clip-rule="evenodd" d="M29 9C29 11.7614 26.7614 14 24 14C21.2386 14 19 11.7614 19 9C19 6.23858 21.2386 4 24 4C26.7614 4 29 6.23858 29 9ZM27 9C27 10.6569 25.6569 12 24 12C22.3431 12 21 10.6569 21 9C21 7.34315 22.3431 6 24 6C25.6569 6 27 7.34315 27 9Z" fill="black"/>
<path d="M16.9998 41V34H18.9998V41C18.9998 41.5523 19.4475 42 19.9998 42H20.0865C20.6037 42 21.0356 41.6056 21.0824 41.0905L21.727 34H23.7353L23.0742 41.2716C23.069 41.3288 23.0622 41.3856 23.0539 41.4417C23.0357 41.5647 23.0101 41.6851 22.9776 41.8025C22.6242 43.0798 21.4549 44 20.0865 44H19.9998C18.3429 44 16.9998 42.6569 16.9998 41Z" fill="black"/>
<path d="M26.9171 41.0905L26.2725 34H24.2642L24.9253 41.2716C24.9305 41.3288 24.9373 41.3856 24.9456 41.4417C24.9638 41.5647 24.9894 41.6851 25.0219 41.8025C25.3753 43.0798 26.5446 44 27.913 44H27.9998C29.6566 44 30.9998 42.6569 30.9998 41V34H28.9998V41C28.9998 41.5523 28.552 42 27.9998 42H27.913C27.3958 42 26.9639 41.6056 26.9171 41.0905Z" fill="black"/>
<path fill-rule="evenodd" clip-rule="evenodd" d="M11 15C10.4477 15 10 15.4477 10 16V31C10 31.5523 10.4477 32 11 32H37C37.5523 32 38 31.5523 38 31V16C38 15.4477 37.5523 15 37 15H11ZM12 17V30H19.5C19.5 29.4424 19.7591 28.9572 20.0276 28.6006C20.3086 28.2276 20.6796 27.8883 21.0794 27.6016C21.6252 27.2103 22.2986 26.865 23 26.6678V24.5H22.2C21.5973 24.5 20.7535 24.8642 19.9433 25.3552C19.5638 25.5852 19.2337 25.8167 18.9984 25.9911C18.8812 26.0778 18.7888 26.1495 18.727 26.1984C18.6961 26.2228 18.673 26.2415 18.6582 26.2535L18.6426 26.2663L18.6399 26.2684C18.6399 26.2684 18.6402 26.2682 18 25.5C17.3598 24.7318 17.3601 24.7315 17.3601 24.7315L17.3614 24.7305L17.3638 24.7285L17.3713 24.7223L17.3966 24.7016C17.4179 24.6843 17.448 24.66 17.4863 24.6297C17.5627 24.5693 17.6719 24.4847 17.8079 24.3839C18.0788 24.1833 18.4612 23.9148 18.9067 23.6448C19.7465 23.1358 21.0027 22.5 22.2 22.5H23V20.5H22.5C21.9309 20.5 21.1909 20.6992 20.5292 20.9398C20.212 21.0552 19.937 21.1709 19.7421 21.2576C19.6449 21.3007 19.5685 21.3363 19.5176 21.3605C19.4922 21.3725 19.4732 21.3817 19.4613 21.3875L19.4487 21.3937L19.447 21.3945C19.447 21.3945 19.4472 21.3944 19 20.5C18.5528 19.6056 18.5531 19.6054 18.5531 19.6054L18.5564 19.6038L18.5629 19.6006L18.5844 19.59C18.6025 19.5812 18.6279 19.5689 18.6601 19.5536C18.7245 19.5231 18.816 19.4805 18.9298 19.4299C19.1567 19.3291 19.4755 19.1948 19.8458 19.0602C20.5591 18.8008 21.5691 18.5 22.5 18.5H23V17H12ZM25 24.5H26.1C26.8489 24.5 27.6186 24.8663 28.2631 25.3186C28.5735 25.5364 28.8285 25.7556 29.0048 25.9197C29.0925 26.0012 29.1594 26.0679 29.2026 26.1122C29.2241 26.1343 29.2397 26.1507 29.2488 26.1605L29.2574 26.1697C29.2574 26.1697 29.2567 26.169 30 25.5C30.7433 24.831 30.7429 24.8306 30.7429 24.8306L30.7414 24.829L30.7389 24.8262L30.7318 24.8184L30.7097 24.7946C30.6915 24.7751 30.6663 24.7485 30.6346 24.716C30.5711 24.6509 30.4809 24.5613 30.367 24.4553C30.1403 24.2444 29.814 23.9636 29.4119 23.6814C28.6314 23.1337 27.4511 22.5 26.1 22.5H25V20.5H25.75C26.4443 20.5 27.1193 20.7011 27.6432 20.9216C27.9003 21.0299 28.1092 21.1378 28.2509 21.2169C28.3215 21.2564 28.3747 21.2882 28.408 21.3087C28.4247 21.3189 28.4363 21.3263 28.4427 21.3304L28.4457 21.3323C28.4457 21.3323 28.4453 21.3321 29 20.5C29.5547 19.6679 29.5542 19.6676 29.5542 19.6676L29.5527 19.6666L29.5501 19.6649L29.5432 19.6604L29.5228 19.6472C29.5063 19.6366 29.484 19.6225 29.4562 19.6054C29.4007 19.5712 29.323 19.5249 29.2256 19.4706C29.0315 19.3622 28.7559 19.2201 28.4193 19.0784C27.7557 18.7989 26.8057 18.5 25.75 18.5H25V17H36V30H28.5C28.5 29.4379 28.2324 28.9452 27.9641 28.5875C27.6803 28.2092 27.3054 27.8606 26.9007 27.5663C26.3675 27.1785 25.6989 26.8257 25 26.6391V24.5ZM26.4929 30C26.4797 29.967 26.4457 29.8964 26.3641 29.7875C26.2259 29.6033 26.0071 29.3894 25.7243 29.1837C25.1478 28.7645 24.4937 28.5117 24.032 28.5004C23.4877 28.5464 22.8052 28.8252 22.2449 29.227C21.9657 29.4272 21.7556 29.6307 21.6252 29.8038C21.5496 29.9043 21.5184 29.9694 21.5063 30H26.4929Z" fill="black"/>
</svg>

<svg
  xmlns="http://www.w3.org/2000/svg"
  width="24"
  height="24"
  viewBox="0 0 24 24"
  fill="none"
  stroke="currentColor"
  stroke-width="2"
  stroke-linecap="round"
  stroke-linejoin="round"
>
  <path
    fill-rule="evenodd"
    d="M29 9a5 5 0 1 1-10 0 5 5 0 0 1 10 0m-2 0a3 3 0 1 1-6 0 3 3 0 0 1 6 0"
    clip-rule="evenodd"
  />
  <path d="M17 41v-7h2v7a1 1 0 0 0 1 1h.087a1 1 0 0 0 .995-.91l.645-7.09h2.008l-.66 7.272a3 3 0 0 1-.097.53A3 3 0 0 1 20.086 44H20a3 3 0 0 1-3-3" />
  <path d="M26.917 41.09 26.272 34h-2.008l.661 7.272a3 3 0 0 0 .097.53A3 3 0 0 0 27.913 44H28a3 3 0 0 0 3-3v-7h-2v7a1 1 0 0 1-1 1h-.087a1 1 0 0 1-.996-.91" />
  <path
    fill-rule="evenodd"
    d="M11 15a1 1 0 0 0-1 1v15a1 1 0 0 0 1 1h26a1 1 0 0 0 1-1V16a1 1 0 0 0-1-1zm1 2v13h7.5c0-.558.26-1.043.528-1.4a4.9 4.9 0 0 1 1.051-.998A6.3 6.3 0 0 1 23 26.668V24.5h-.8c-.603 0-1.447.364-2.257.855a12.5 12.5 0 0 0-1.285.898l-.015.013-.003.002L18 25.5l-.64-.768.001-.002.003-.002.007-.006.026-.02q.03-.027.09-.072a14.512 14.512 0 0 1 1.42-.985c.84-.51 2.096-1.145 3.293-1.145h.8v-2h-.5c-.57 0-1.31.2-1.97.44a12 12 0 0 0-1.069.447l-.012.007h-.002L19 20.5l-.447-.895.003-.001.007-.003.021-.011a9 9 0 0 1 .346-.16c.227-.1.546-.235.916-.37.713-.26 1.723-.56 2.654-.56h.5V17zm13 7.5h1.1c.749 0 1.519.366 2.163.819a7 7 0 0 1 .986.841l.008.01.743-.67.743-.67-.002-.001-.002-.003-.007-.008-.022-.023-.075-.079a9.053 9.053 0 0 0-1.223-1.035c-.78-.547-1.96-1.181-3.312-1.181H25v-2h.75c.694 0 1.37.201 1.893.422a6 6 0 0 1 .8.408l.003.002L29 20.5l.554-.832-.001-.001-.003-.002-.007-.005-.02-.013-.067-.042a8.163 8.163 0 0 0-1.037-.527c-.663-.28-1.613-.578-2.669-.578H25V17h11v13h-7.5c0-.562-.268-1.055-.536-1.413a5 5 0 0 0-1.063-1.02A5.9 5.9 0 0 0 25 26.638zm1.493 5.5a1 1 0 0 0-.129-.212 3 3 0 0 0-.64-.604c-.576-.42-1.23-.672-1.692-.684-.544.046-1.227.325-1.787.727-.28.2-.49.404-.62.577a1 1 0 0 0-.119.196z"
    clip-rule="evenodd"
  />
</svg>
